src/icon.svg

<svg fill="none" height="200" viewBox="0 0 200 200" width="200" xmlns="http://www.w3.org/2000/svg" xmlns:xlink="http://www.w3.org/1999/xlink"><linearGradient id="a" gradientUnits="userSpaceOnUse" x1="-.000001" x2="200" y1="200" y2="-.000001"><stop offset="0" stop-color="#3a0909"/><stop offset="1" stop-color="#b31919"/></linearGradient><clipPath id="b"><path d="m0 0h104v103h-104z" transform="matrix(-.00000004 -1 -1 .00000004 151 152)"/></clipPath><path clip-rule="evenodd" d="m0 100c0-100 .397614-100 100.199-100 99.801 0 99.801 0 99.801 100s0 100-99.801 100c-99.801386 0-100.199 0-100.199-100z" fill="url(#a)" fill-rule="evenodd"/><g clip-path="url(#b)"><path d="m77.4286 62.8571c0 6.9049-4.7086 12.6695-11.0357 14.3298v19.0988c0 4.0973 3.2996 7.4283 7.3571 7.4283h22.0714v-26.5271c-6.3271-1.6603-11.0357-7.4249-11.0357-14.3298 0-8.1937 6.5994-14.8571 14.7143-14.8571 8.115 0 14.714 6.6634 14.714 14.8571 0 6.9049-4.708 12.6695-11.035 14.3298v26.5271h22.071c8.115 0 14.714 6.664 14.714 14.857v4.242c6.327 1.66 11.036 7.425 11.036 14.33 0 8.194-6.599 14.857-14.714 14.857s-14.715-6.663-14.715-14.857c0-6.905 4.709-12.67 11.036-14.33v-4.242c0-4.096-3.3-7.428-7.357-7.428h-51.5c-8.1149 0-14.7143-6.664-14.7143-14.8573v-19.0988c-6.3271-1.6603-11.0357-7.4249-11.0357-14.3298 0-8.1937 6.5994-14.8571 14.7143-14.8571s14.7143 6.6634 14.7143 14.8571zm29.4284 0c0-4.0968-3.3-7.4285-7.357-7.4285-4.0575 0-7.3571 3.3317-7.3571 7.4285 0 4.0969 3.2996 7.4286 7.3571 7.4286 4.057 0 7.357-3.3317 7.357-7.4286zm22.072 74.2859c0 4.097 3.299 7.428 7.357 7.428 4.057 0 7.357-3.331 7.357-7.428s-3.3-7.429-7.357-7.429c-4.058 0-7.357 3.332-7.357 7.429zm-73.5719-74.2859c0 4.0969 3.2997 7.4286 7.3572 7.4286s7.3571-3.3317 7.3571-7.4286c0-4.0968-3.2996-7.4285-7.3571-7.4285s-7.3572 3.3317-7.3572 7.4285z" fill="#fff"/></g></svg>

<svg width="200" height="200" viewBox="0 0 200 200" fill="none" xmlns="http://www.w3.org/2000/svg">
<path fill-rule="evenodd" clip-rule="evenodd" d="M0 100C0 0 0.397614 0 100.199 0C200 0 200 0 200 100C200 200 200 200 100.199 200C0.397614 200 0 200 0 100Z" fill="url(#paint0_linear_2:2)"/>
<g clip-path="url(#clip0_2:2)">
<path d="M77.4286 62.8571C77.4286 69.762 72.72 75.5266 66.3929 77.1869L66.3929 96.2857C66.3929 100.383 69.6925 103.714 73.75 103.714L95.8214 103.714L95.8214 77.1869C89.4943 75.5266 84.7857 69.762 84.7857 62.8571C84.7857 54.6634 91.3851 48 99.5 48C107.615 48 114.214 54.6634 114.214 62.8571C114.214 69.762 109.506 75.5266 103.179 77.1869L103.179 103.714L125.25 103.714C133.365 103.714 139.964 110.378 139.964 118.571L139.964 122.813C146.291 124.473 151 130.238 151 137.143C151 145.337 144.401 152 136.286 152C128.171 152 121.571 145.337 121.571 137.143C121.571 130.238 126.28 124.473 132.607 122.813L132.607 118.571C132.607 114.475 129.307 111.143 125.25 111.143L73.75 111.143C65.6351 111.143 59.0357 104.479 59.0357 96.2857L59.0357 77.1869C52.7086 75.5266 48 69.762 48 62.8571C48 54.6634 54.5994 48 62.7143 48C70.8292 48 77.4286 54.6634 77.4286 62.8571ZM106.857 62.8571C106.857 58.7603 103.557 55.4286 99.5 55.4286C95.4425 55.4286 92.1429 58.7603 92.1429 62.8571C92.1429 66.954 95.4425 70.2857 99.5 70.2857C103.557 70.2857 106.857 66.954 106.857 62.8571ZM128.929 137.143C128.929 141.24 132.228 144.571 136.286 144.571C140.343 144.571 143.643 141.24 143.643 137.143C143.643 133.046 140.343 129.714 136.286 129.714C132.228 129.714 128.929 133.046 128.929 137.143ZM55.3571 62.8571C55.3571 66.954 58.6568 70.2857 62.7143 70.2857C66.7718 70.2857 70.0714 66.954 70.0714 62.8571C70.0714 58.7603 66.7718 55.4286 62.7143 55.4286C58.6568 55.4286 55.3571 58.7603 55.3571 62.8571Z" fill="white"/>
</g>
<defs>
<linearGradient id="paint0_linear_2:2" x1="-1.19037e-06" y1="200" x2="200" y2="-1.19037e-06" gradientUnits="userSpaceOnUse">
<stop stop-color="#3A0909"/>
<stop offset="1" stop-color="#B31919"/>
</linearGradient>
<clipPath id="clip0_2:2">
<rect width="104" height="103" fill="white" transform="matrix(-4.37114e-08 -1 -1 4.37114e-08 151 152)"/>
</clipPath>
</defs>
</svg>
